X:260
T:Never Was Piping So Gay
Z: id:dc-reel-361
M:C
L:1/8
K:G Major
D|G,2B,D GBdB|cafd cAFA|G2BG DGBG|AFF2 dFAF|!
G2BG DGBA|Ggfe ^cdef|gfgd BdBG|FGAd BGG:|!
f|gfgd BdBG|DGBd cAFA|GBBA BcdB|cafd ^cdef|!
gfgd BdBG|DGBd cAFA|BGG2 AFF2|BdcA G3:|!

